X: 33622
T: Rakish Paddy
R: reel
M: 4/4
K: Adorian
|:c2cd c2 AB|cAGE ~E2GE|D2d^c defe|dcAG FGAB|
c2cd cBAB|cAGE ~E2GE|DEFG ABcA|1 dcAG FGAB:|2 dcAG FGA2||
|:egfg ag ~g2|egfg ed^cd|ea~a2 ba~a2|ea~a2 ed^cd|
e2g2 a2g2|~f2ef defg|afge defe|1 dcAG FGA2:|2 dcAG FGAB||

